img/case_study/bullet.svg

<svg height="9" viewBox="0 0 6 9" width="6" xmlns="http://www.w3.org/2000/svg"><path d="m941.337891 367.738281c.058594.046875.102539.105469.131836.175781.029297.070313.043945.140625.043945.210938 0 .082032-.014648.155273-.043945.219727-.029297.064453-.067383.125976-.114258.18457l-3.56836 3.550781c-.046875.058594-.108398.102539-.18457.131836s-.149414.043945-.219727.043945c-.164063 0-.298827-.052733-.404296-.158203-.10547-.105469-.158204-.240233-.158204-.404297 0-.070312.014649-.143554.043946-.219726s.073242-.137695.131836-.184571l3.146484-3.164062-3.164062-3.164062c-.046876-.046876-.087891-.105469-.123047-.175782-.035157-.070313-.052735-.146484-.052735-.228515 0-.152345.055664-.28418.166993-.395508.111328-.111329.243163-.166992.395507-.166992.082032 0 .158203.014648.228516.043945s.134765.073242.193359.131836z" fill="#4a4a4a" fill-rule="evenodd" transform="translate(-936 -364)"/></svg>

<?xml version="1.0" encoding="UTF-8"?>
<svg width="6px" height="9px" viewBox="0 0 6 9" version="1.1" xmlns="http://www.w3.org/2000/svg" xmlns:xlink="http://www.w3.org/1999/xlink">
    <!-- Generator: Sketch 52.1 (67048) - http://www.bohemiancoding.com/sketch -->
    <title> copy</title>
    <desc>Created with Sketch.</desc>
    <g id="Page-1" stroke="none" stroke-width="1" fill="none" fill-rule="evenodd">
        <g id="Hamon_Casestudie" transform="translate(-936.000000, -364.000000)" fill="#4A4A4A">
            <path d="M941.337891,367.738281 C941.396485,367.785156 941.44043,367.84375 941.469727,367.914062 C941.499024,367.984375 941.513672,368.054687 941.513672,368.125 C941.513672,368.207032 941.499024,368.280273 941.469727,368.344727 C941.44043,368.40918 941.402344,368.470703 941.355469,368.529297 L937.787109,372.080078 C937.740234,372.138672 937.678711,372.182617 937.602539,372.211914 C937.526367,372.241211 937.453125,372.255859 937.382812,372.255859 C937.218749,372.255859 937.083985,372.203126 936.978516,372.097656 C936.873046,371.992187 936.820312,371.857423 936.820312,371.693359 C936.820312,371.623047 936.834961,371.549805 936.864258,371.473633 C936.893555,371.397461 936.9375,371.335938 936.996094,371.289062 L940.142578,368.125 L936.978516,364.960938 C936.93164,364.914062 936.890625,364.855469 936.855469,364.785156 C936.820312,364.714843 936.802734,364.638672 936.802734,364.556641 C936.802734,364.404296 936.858398,364.272461 936.969727,364.161133 C937.081055,364.049804 937.21289,363.994141 937.365234,363.994141 C937.447266,363.994141 937.523437,364.008789 937.59375,364.038086 C937.664063,364.067383 937.728515,364.111328 937.787109,364.169922 L941.337891,367.738281 Z" id="-copy"></path>
        </g>
    </g>
</svg>
